assets/icons/standard/asset_action.svg

<svg data-name="Layer 1" xmlns="http://www.w3.org/2000/svg" width="100" height="100" viewBox="0 0 100 100">
  <path d="M64.2,72.4a3.74,3.74,0,0,1-3.7-3.9V66.4a3.49,3.49,0,0,1,1-3.1L73.1,51.7V26.8a2.43,2.43,0,0,0-2.4-2.4H29.3a2.43,2.43,0,0,0-2.4,2.4V68.3a2.43,2.43,0,0,0,2.4,2.4h5.3v2.5A2.43,2.43,0,0,0,37,75.6h2.8a2.43,2.43,0,0,0,2.4-2.4V70.7H58v2.5a2.43,2.43,0,0,0,2.4,2.4h2.8a2.43,2.43,0,0,0,2.4-2.4v-.8ZM36.3,36.8a.84.84,0,0,1,.9-.9H62.9a.84.84,0,0,1,.9.9v.9a.84.84,0,0,1-.9.9H37.1a.84.84,0,0,1-.9-.9v-.9Zm27.2,4.3V54a.84.84,0,0,1-.9.9H60.9A.84.84,0,0,1,60,54V41.1a.84.84,0,0,1,.9-.9h1.7Q63.5,40.35,63.5,41.1Zm-5.9,0V54a.9.9,0,0,1-1.8,0V41.1a.84.84,0,0,1,.9-.9Q57.6,40.35,57.6,41.1Zm-3.3,0V54a.84.84,0,0,1-.9.9H50a.84.84,0,0,1-.9-.9V41.1a.84.84,0,0,1,.9-.9h3.4C53.9,40.3,54.3,40.6,54.3,41.1Zm-7.7,0V54a.84.84,0,0,1-.9.9H44a.84.84,0,0,1-.9-.9V41.1a.84.84,0,0,1,.9-.9h1.7C46.2,40.3,46.6,40.6,46.6,41.1Zm-10.3,0a.84.84,0,0,1,.9-.9h3.4a.84.84,0,0,1,.9.9V54a.84.84,0,0,1-.9.9H37.2a.84.84,0,0,1-.9-.9ZM37.1,59a.84.84,0,0,1-.9-.9v-.9a.84.84,0,0,1,.9-.9H62.8a.84.84,0,0,1,.9.9v.9a.84.84,0,0,1-.9.9Z" fill="#fff" />
  <path d="M79,54.7l-.9-.9a1.57,1.57,0,0,0-2.2,0L64,65.7c-.1.1,0,.2,0,.3v2.5c0,.2,0,.4.2.4h2.6c.1,0,.2-.1.3-.1L79,57A1.52,1.52,0,0,0,79,54.7Z" fill="#fff" />
</svg>

<?xml version="1.0"?><svg xmlns="http://www.w3.org/2000/svg" width="100" height="100" viewBox="0 0 100 100"><title></title><path d="m64.2 72.4a3.7 3.7 0 0 1-3.7-3.9v-2.1a3.5 3.5 0 0 1 1-3.1l11.6-11.6v-24.9a2.4 2.4 0 0 0-2.4-2.4h-41.4a2.4 2.4 0 0 0-2.4 2.4v41.5a2.4 2.4 0 0 0 2.4 2.4h5.3v2.5a2.4 2.4 0 0 0 2.4 2.4h2.8a2.4 2.4 0 0 0 2.4-2.4v-2.5h15.8v2.5a2.4 2.4 0 0 0 2.4 2.4h2.8a2.4 2.4 0 0 0 2.4-2.4v-0.8z m-27.9-35.6a0.8 0.8 0 0 1 0.9-0.9h25.7a0.8 0.8 0 0 1 0.9 0.9v0.9a0.8 0.8 0 0 1-0.9 0.9h-25.8a0.8 0.8 0 0 1-0.9-0.9v-0.9z m27.2 4.3v12.9a0.8 0.8 0 0 1-0.9 0.9h-1.7a0.8 0.8 0 0 1-0.9-0.9v-12.9a0.8 0.8 0 0 1 0.9-0.9h1.7q0.9 0.2 0.9 0.9z m-5.9 0v12.9a0.9 0.9 0 0 1-1.8 0v-12.9a0.8 0.8 0 0 1 0.9-0.9q0.9 0.2 0.9 0.9z m-3.3 0v12.9a0.8 0.8 0 0 1-0.9 0.9h-3.4a0.8 0.8 0 0 1-0.9-0.9v-12.9a0.8 0.8 0 0 1 0.9-0.9h3.4c0.5 0.1 0.9 0.4 0.9 0.9z m-7.7 0v12.9a0.8 0.8 0 0 1-0.9 0.9h-1.7a0.8 0.8 0 0 1-0.9-0.9v-12.9a0.8 0.8 0 0 1 0.9-0.9h1.7c0.5 0.1 0.9 0.4 0.9 0.9z m-10.3 0a0.8 0.8 0 0 1 0.9-0.9h3.4a0.8 0.8 0 0 1 0.9 0.9v12.9a0.8 0.8 0 0 1-0.9 0.9h-3.4a0.8 0.8 0 0 1-0.9-0.9z m0.8 17.9a0.8 0.8 0 0 1-0.9-0.9v-0.9a0.8 0.8 0 0 1 0.9-0.9h25.7a0.8 0.8 0 0 1 0.9 0.9v0.9a0.8 0.8 0 0 1-0.9 0.9z m41.9-4.3l-0.9-0.9a1.6 1.6 0 0 0-2.2 0l-11.9 11.9c-0.1 0.1 0 0.2 0 0.3v2.5c0 0.2 0 0.4 0.2 0.4h2.6c0.1 0 0.2-0.1 0.3-0.1l11.9-11.8a1.5 1.5 0 0 0 0-2.3z" fill="#fff"></path></svg>
